X:3
T: Tenpenny Bit, The (J-3; in A Dorian)
M: 6/8
Z: Transcribed to abc by Mary Lou Knack
R: jig
K: ADor
e| "Am"eAA eAA| "G"BAB GBd| "Am"eAA eAA| "D"def "G"gfg|
   "Am"eAA eAA| "G"BAB GBd| "Em"edB gBB| "Am"BAA A2 :|
|:B| "Am"A2a aga| "Em"bge dBG| "Am"A2a aga| "Em"bge g2d|
   "Am"e2a aga| "Em"bge dBd| edB gBB| "Am"BAA A2 :|
%%scale .5
%%text 01/1/05 

#include "RightHeader.h"
%%text Set 79 (old 80)
%%vskip -1cm
%%scale .7
